X:1
T:Trio Sonata Op.1 No.8 in h-moll, for 2 Violins and Continuo
T:Tommaso Albinoni( 167l - 175l ) Arr. by : Stefan Altner
T:Trio Sonata Op.1 No.8 in h-moll
T:for 2 Violins and Continuo Transcribed for 2 Recorders and Continuo from IMSLP#315305 PDF File
T:Public Domain - Non-PD US
T:Public Domain - Non-PD US
T:Public Domain - Non-PD US
T:Public Domain - Non-PD US
T:Public Domain - Non-PD US
T:Public Domain - Non-PD US
C:Tommaso Albinoni(167l ï¼ 175l )
Z:Public Domain - Non-PD US
%%score [ 1 2 ( 3 4 ) ] { ( 5 7 8 ) | ( 6 9 ) }
L:1/8
Q:1/2=60
M:3/2
K:D
V:1 treble nm="Tenor Recorder 1" snm="T. Rec.1"
V:2 treble nm="Tenor Recorder 2" snm="T. Rec.2"
V:3 bass nm="Viola da gamba" snm="Vla. d. g."
V:4 bass 
V:5 treble nm="Harpsichord" snm="Hch."
V:7 treble 
V:8 treble 
V:6 bass 
V:9 bass 
V:1
"^1. Grave" z4 z4 F4- | F4 E4 G4 | C4 c4 c'4- | c'4 b4 a4 | g8 f4- | f4 e6 f2 | !fermata!f12 | %7
w: |||||||
 c12 | f12- | f4 ^e4 e4 | a8 ^a4 | b8 ^e4 | f4 f8 | ^e8 (c'2 c2) | ^d6 (bd) ^e3 b | b4 a4 ^a4 | %16
w: |||||||||
 b8 c'4 | f8 (b2 B2) | c6 (ac) ^d3 a | a4 g4 b4 | =c'4 e4 a4 | a8 g4- | g4 f8- | %23
w: |||||||
 f4 (e2 d2) (d2 c2) | c12- | c4 B2 c2 d4 | c6 d2 c2 B2 | (^A2 c2) (c2 d2) (d2 e2) | e6 e2 d2 c2 | %29
w: |||* . * *|||
 d2 e2 c8 | (B2 f2) (f2 ^g2) (g2 ^a2) | ^a6 a2 b4 | B4 B6 ^A2 | B8 f4- | f4 e6 f2 | !fermata!f12 |] %36
w: |||||||
[M:4/4]"^2. Allegro"[Q:1/4=100] z f Bf bc' d'c'/b/ | ^a=a ^g=g fe/d/ c2 | B2 z ^g abc'd' | %39
w: |||
 ^g c'2 b- b/a/g/f/ f>=e | fc dc d^A BA | B^A de fc'/d'/ bb/c'/ | ^a b2 a b g2 f- | %43
w: ||||
 f e2 d c a2 g- | gf e2 df ea- | ag fb- ba ^gc'- | c'f b3 a ^g2 | f^g ag ab c'd' | ^g c'2 b2 a g2 | %49
w: ||||||
 ff Bf bc' d'c'/b/ | ^a=a ^g=g f b2 ^a | bg f2 e a2 g | f b2 a2 g f2 | eB EB ef gf/e/ | %54
w: |||||
 ^d=d ^c=c BA/G/ F2 | E g2 f2 e2 d | cc dc de fg | c f2 e2 d c2 | Be a2 g2 f2 | e a2 g2 f e2 | %60
w: ||||||
 df ea- ag fb- | ba ^gc'- c'f b2- | ba ^g2 fc Fc | f^g ag/f/ ^e=e ^d=d | c f2 ^e fc dc | %65
w: |||||
 d^A BA BA de | fc'/d'/ bb/c'/ ^a b2 a | b g2 f2 e2 d | c2 z f g^g a^a | bB B>^A B2 z f | %70
w: |||||
 g^g a^a bB B>^A | Bg c2 !fermata!B4 |][M:4/4]"^3. Grave"[Q:1/4=60] c2 d3 c cB | A2 c'3 b b2- | %74
w: ||||
 b2 a2 ^g4 | f3 b e2 a2- | a^g ga/g/ f3 f | ^ge a4 =g2- | g2 f2 e2 a2- | a2 g2 =c'3 c' | %80
w: ||||||
 ^dB e4 d2 | g4 f4 | e2 d2 c3 f | ^g3 g ^af b2- | b2 ^a2 b2 [Ff]2 | [Ee]2 [Dd]2 !fermata![Cc]4 |] %86
w: ||||||
[M:3/8]"^4. Allegro"[Q:3/8=70] z ff | g/f/ge | f/e/fd | ecf | B3 | z f/a/^g/f/ | ^ecf | f2 ^e | %94
w: ||||||||
 fdd | ee/f/g | fd/e/f | ee/d/c/e/ | dBg- | g/g/f/e/a- | a/a/g/f/b- | b a2 | g2 f- | f e2 | %104
w: ||||||||||
 df/e/d/f/ | e a2- | ag/f/e/g/ | f b2- | ba/^g/f/a/ | ^g c'2- | c'fb- | b2 a- | a ^g2 | f3 | %114
w: ||||||||||
 z f/a/^g/f/ | ^ecf | f2 ^e | fff | g/f/ge | f/e/fd | ecf | dBf | gea | fdb- | bea- | adg- | gcf | %127
w: |||||||||||||
 Bcd | DD>C | Daa | b/a/bg | a/g/af | gea | fd z | z b/d'/c'/b/ | ^afb- | b2 ^a | b g2- | ga/g/f- | %139
w: ||||||||||||
 fBe | ^d b2- | bea | a2 g- | g f2 | ebb | =c'/b/c'a | b/a/bg | afb | ge z | z ba | ggf | eed | %152
w: |||||||||||||
 c2 z | z B/d/c/B/ | ^AFB- | B2 ^A | Bgf | eed | ccB | ^Aff | g/f/ge | f/e/fd | e/d/ec | d>ef | %164
w: ||||||||||||
 e/d/ c2 |!p! Bff | g/f/ge | f/e/fd | e/d/ec | d>ef | e/d/ c2 | B3 |] %172
w: ||||||||
V:2
 F12 | B12- | B4 ^A4 A4 | d8 ^d4 | e8 ^A4 | B8 ^A4 | !fermata!^A12 | z4 z4 c4- | c4 B4 d4 | %9
 ^G4 G4 ^g4- | g4 f4 e4 | d8 c4- | c4 B6 c2 | c12 | z12 | z4 z4 (f2 F2) | ^G6 (eG) ^A3 e | %17
 e4 ^d4 d4 | e8 f4 | B8 g4 | a6 g2 f2 e2 | ^d8 e4- | e4 (b2 a2) (a2 g2) | g12- | %24
 g4 (f2 e2) (e2 d2) | d6 e2 f4 | e6 f2 e2 d2 | c6 F2 (F2 ^G2) | (^G2 ^A2) (A2 B2) B4- | B4 B6 ^A2 | %30
 B6 B2 e4 | e8 d4- | d4 c6 c2 | d8 c4- | c4 B8 | !fermata!^A12 |][M:4/4] z8 | z8 | %38
 z B Fc f^g ag/f/ | ^e=e ^d=d cB/A/ ^G2 | F^A BA Bc dc | de fg c f2 e- | ed c2 Be Aa | %43
 g2 f2 ec de | A d2 c d d2 c | B e2 d c f2 ^e | f3 ^g/f/ ^e f2 e | fc Fc f^g ag/f/ | %48
 ^e=e ^d=d c f2 ^e | fc dc def^g | c f2 e2 d c2 | BBA d2 c Be | ^dg/f/ ef/e/ d e2 d | %53
 ef gf gab=c' | f b2 a- a/g/f/e/ e>^d | eB ^A=A ^G=G FB | ^AA BA BA de | fc/d/ BB/c/ ^A B2 A | %58
 B g2 f2 e2 d | ccde A d2 c | d d2 c B e2 d | c f2 ^e f3 ^g/f/ | ^ef- fe f^g ag | %63
 abc'd' ^g c'2 b- | ba ^g2 f^A BA | Bc dc de fg | c f2 e2 d c2 | BB ^A=A ^G=G FB | ^Ac d^d e3 e | %69
 ed c2 Bc d^d | e3 e ed c2 | BB B>^A !fermata!B4 |][M:4/4] A4 (^G2 ^g2-) | gf fe d2 [dd']2 | %74
 ^e2 f4 e2 | f2 d4 c2 | B2 e3 A d2- | d2 c2 B3 B | cA d4 c2 | ^dB b3 e a2- | a2 g2 f4- | f2 e4 d2 | %82
 c2 B2 ^A2 f2- | f2 e4 d2 | c4 B2 [Dd]2 | [Cc]2 [B,B]2 !fermata![^A,^A]4 |][M:3/8] z3 | z3 | z3 | %89
 z3 | z BB | d/c/dB | c/B/cA | B^Gc | F3 | z B/d/c/B/ | ^AFB- | B2 ^A | B2 d | e>ed/c/ | f>fe/d/ | %101
 g2 (f | f)ed- | dd>c | d d2- | dc/B/A/c/ | B e2- | ed/c/B/d/ | c f2- | f^ee | f2 ^g | ^e2 f- | %112
 ff>^e | fcc | d/c/dB | c/B/cA | B^Gc | AF z | z B/d/c/B/ | ^AFB | B2 ^A | B2 d | d2 c | d2 d | %124
 c2 f | B2 B | A2 d | G2 F- | F E2 | D3 | z d/f/e/d/ | cAd | d2 c | dff | g/f/ge | f/e/fd | ecf | %137
 dBB | A2 B/A/ | G2 =c | F2 ^d | e2 f | ^d2 e- | ee>^d | e3 | z e/g/f/e/ | ^dBe- | e2 ^d | eba | %149
 ggf | eed | ccB | ^Acd | ee/f/g | fd/e/f | ee/d/c/e/ | dB z | z gf | eed | cdd | Bcc | d/c/dB | %162
 c/B/c^A | B2 B- | BB>^A |!p! B3 | z cc | d/c/dB | c/B/c^A | B2 B- | BB>^A | B3 |] %172
V:3
 B,4 B,4 A,4 | G,4 G,4 E,4 | F,4 F,,4 F,4 | B,4 B,,4 B,4 | E4 E,4 F,4 | G,4 G,,8 | !fermata!F,,12 | %7
 F,4 F,4 E,4 | D,4 D,4 B,,4 | C,4 C4 C,4 | F,4 F,,4 F,4 | B,4 B,,4 C,4 | D,12 | C,4 C8- | %14
 C4 B,4 ^G,2 ^E,2 | F,8 F,4- | F,4 =E,4 C,2 ^A,,2 | B,,8 B,4- | B,4 A,4 F,2 ^D,2 | E,8 E,4 | %20
 A,8 A,4 | B,8 =C4 | A,4 B,4 B,,4 | E,8 E,4 | ^A,,8 A,,4 | B,,8 B,4 | E,8 E,4 | F,6 B,,2 B,,2 E,2 | %28
 (E,2 F,2) (F,2 G,2) G,4 | E,4 F,4 F,,4 | B,,6 E,2 (E,2 C,2) | F,6 F,2 G,4 | E,4 F,4 F,,4 | %33
 B,8 A,4- | A,4 G,8 | F,12 |][M:4/4] z8 | z8 | z8 | z8 | z4 z F, B,,F, | B,C DC/B,/ ^A,=A, ^G,=G, | %42
 F,G, E,F, B,,C, D,2 | E,E, F,G, A,A,,B,,C, | D,D, A,A,, D,D,, A,A,, | E,E,, B,B,, F,F,, CC, | %46
 D,3 B,, C,D, B,,C, | F,^E, F,E, F,B,, F,B,, | C,C F,^G, ^E,F, B,,C, | F,^A, B,A, B,E, B,,E, | %50
 F,F,, B,,C, ^A,,B,, E,F, | B,B,, DD, A,A,, EE, | B,B,, =C,A,, B,,C, A,,B,, | %53
 E,^D, E,D, E,A,, E,A, | B,B,, E,F, ^D,E, A,,B,, | E,2 z2 z4 | z F,B,,F, B,C DC/B,/ | %57
 ^A,=A,^G,=G, F,G,E,F, | B,,C,D,D,, E,E,,F,G, | A,A,, B,C DD, A,A,, | D,D,, A,A,, E,E,, B,B,, | %61
 F,F,,CC, D,3 B,, | C,D,B,,C, F,^E,F,E, | F,B,,F,B,, C,CF,^G, | ^E,F,B,,C, F,2 z2 | %65
 z F,B,,F, B,C DC/B,/ | ^A,=A,^G,=G, F,G,E,F, | B,,B,, C,^D, E,E, B,B,, | F,^A,B,B,, E,E,C,F, | %69
 G,E,F,F,, B,,F,B,B,, | E,E,C,F, G,B,,E,F, | B,,E,F,F,, !fermata!B,,4 |][M:4/4] F,4 ^E,2 E,2 | %73
 F,2 ^A,2 B,2 B,,2 | C,2 D,2 B,,2 C,2 | F,2 F,^G, A,2 A,,2 | E,3 C, D,3 D, | E,2 F,2 D,2 E,2 | %78
 A,,2 B,,2 G,,2 A,,2 | B,2 E,2 A,3 A, | B,2 =C2 A,2 B,2 | E,4 ^A,,F,, B,,2 | E,2 B,,2 F,2 D,2 | %83
 E,4 F,2 G,2 | E,2 F,2 B,,2 B,2 | E,2 B,2 !fermata!F,4 |][M:3/8] z3 | z3 | z3 | z3 | z3 | z3 | z3 | %93
 z3 | z F,F, | G,/F,/G,E, | F,/E,/F,D, | E,C,F, | B,,2 B,, | C,A,,F,, | D,2 z | E,C,A,, | B,,C,D, | %103
 G,, A,,2 | D,2 D, | A,2 A, | !arpeggio!E,2 E, | B,2 B, | F,2 F, | C2 C, | D,2 B,, | C,2 D, | %112
 B,, C,2 | F,A,A, | B,2 ^G, | CA,F, | B,CC, | F,D,D, | E,2 C, | F,D,B,, | E,F,F,, | B,,2 B, | %122
 E,A,A,, | D,2 D, | E,C,A,, | B,,2 B,, | C,A,,F,, | G,,A,,B,, | G,, A,,2 | D,F,F, | G,2 E, | %131
 A,F,D, | B,G,A, | D,2 D, | E,2 C, | F,D,B,, | G,E,F, | B,,2 B,, | C,2 ^D, | !tenuto!E,G,,A,, | %140
 B,,2 B,, | C,C,A,, | B,,2 =C, | A,, B,,2 | E,G,G, | A,2 F, | B,G,E, | =CA,B, | E,2 z | z3 | z3 | %151
 z3 | z F,F, | G,/F,/G,E, | F,/E,/F,D, | E,C,F, | B,,2 B,, | C,2 D, | E,2 B,, | F,F,D, | E,2 A,, | %161
 D,2 G, | C,2 F, | B,,>C,D, | E,F,F,, | B,,D,D, | E,2 A,, | D,2 G, | C,2 F, | B,,>C,D, | E,F,F,, | %171
 !fermata!B,,3 |] %172
V:4
 x12 | x12 | x12 | x12 | x12 | x12 | x12 | x12 | x12 | x12 | x12 | x12 | x12 | x12 | x12 | x12 | %16
 x12 | x12 | x12 | x12 | x12 | x12 | x12 | x12 | x12 | x12 | x12 | x12 | x12 | x12 | x12 | x12 | %32
 x12 | x12 | x12 | x12 |][M:4/4] x8 | x8 | x8 | x8 | x8 | x8 | x8 | x8 | x8 | x8 | x8 | x8 | x8 | %49
 x8 | x8 | x8 | x8 | x8 | x8 | x8 | x8 | x8 | x8 | x8 | x8 | x8 | x8 | x8 | x8 | x8 | x8 | x8 | %68
 x8 | x8 | x8 | x8 |][M:4/4] x8 | x8 | x8 | x8 | x8 | x8 | x8 | x8 | x8 | x8 | x8 | x8 | x8 | x8 |] %86
[M:3/8] x3 | x3 | x3 | x3 | x3 | x3 | x3 | x3 | x3 | x3 | x3 | x3 | x3 | x3 | D,B,,G,, | x3 | x3 | %103
 x3 | x3 | x3 | x3 | x3 | x3 | x3 | x3 | x3 | x3 | x3 | x3 | x3 | x3 | x3 | x3 | x3 | x3 | x3 | %122
 x3 | x3 | x3 | x3 | x3 | x3 | x3 | x3 | x3 | x3 | x3 | x3 | x3 | x3 | x3 | x2 B, | x3 | x3 | x3 | %141
 x3 | x3 | x3 | x3 | x3 | x3 | x3 | x3 | x3 | x3 | x3 | x3 | x3 | x3 | x3 | x3 | x3 | x3 | x3 | %160
 x3 | x3 | x3 | x3 | x3 | x3 | x3 | x3 | x3 | x3 | x3 | x3 |] %172
V:5
 [DF]8 [CF]4 | [DF]4 [EB]4 [EGB-]4 | B4 ^A4 [FAc-]4 | c4 B4 B4 | [GB]8 [CF^A]4 | [B,B]12 | %6
 !fermata![CF^A]12 | [CF^A]8 [CGc-]4 | c4 B4 [DF-B]4 | [C^G]12 | [CA]8 [CF^A]4 | [DFB]8 [C^E^G]4 | %12
 F12 | [^G,C^E]4 [CE^G]4 [EGc]4 | A4 B4 B4- | B4 A4 [CF^A]4 | [B,E^G]8 ^A2 c2- | c4 B4 [DFB]4 | %18
 c8 ^d2 f2- | f4 e4 [GBe]4 | [A=c]8 f2 e2 | ^d8 [Ge]4- | [Ge]4 [F^d]4 d4 | [F^d]4 [Ge]4 G4 | %24
 c8 c4 | D8 [DFB]4 | [CGc]8 [CGc]4 | [CF^A]6 [DFB]2 [DFAB]2 [E^GB]2 | %28
 ([E^GB]2 [CE^A]2) [CEA]2 [B,EB]2 [D-=GB-]4 | [DGB]4 B4 ^A4 | [DFB]6 [B,E^G]2 [B,EG]2 [E^A]2 | %31
 [CE^A]6 [CEA]2 [B,DB]4 | [DGB]4 B4 ^A4 | [DFB]8 [CF-c-]4 | [Fc]4 [Be]8 | !fermata![^Acf]12 |] %36
[M:4/4] z8 | z8 | z8 | z8 | z4 z [F^Ac] [FBd][FAc] | [DFB][E^A] [FB][Gc] [Fcf][Fc] [FB][EBe] | %42
 [^Ae][DB] [CGB][CFA] [DFB][EG-] [DA]2 | [B,G]2 F2 [CE][CEA][DFA][E-G] | F2 E2 F[FA] [EA-]2 | %45
 AG [B,-F]2 B,A, [C^G]2 | [CF]3 [DFB] [^EB][F-A] FE | [A,CF][C^G] [CA][CG] [CA][DGB] [CFA][DGB] | %48
 [C^E^G][C=EG] [C^DA][B,=DG] [B,CG][A,CF] [DFG][C^EG] | %49
 [A,CF][CF] [DF][CFc] [CFB][CGc] [DFB][C^G] | [^A,CF][CF=A] [DF^G][CEG] [EFc][DFB] [CGB][CF^A] | %51
 [DFB]2 [D=A]2 [EA]2 [EB]2 | [^DFB][DG^d] [EGB][CFc] [DFA][EG] [EF=c][DFB] | %53
 B2 B2 [EGB][A=cf][GBe][Fc] | [FB]2 BA [B,FA][B,E=G] [EF=c][^DFB] | [EGB]2 z2 z4 | %56
 z [F^Ac][FBd][FAc] [DFB][EA][FB][Gc] | [Fc]2 B2 [CE^A][B,DB][CGB][CFA] | %58
 [DFB][E=A] [DA]2 G2 [CEA][B,DF] | [CE]2 [DA][EG-] GF E2 | [DF][D-FA-] [EA]2 [EB]2 [FB]2 | %61
 BA [C^G]2 F3 G | [B,^G][A,F] G2 [A,CF][^G,CG][A,CF][G,CG] | %63
 [A,CF][B,^G][A,F][B,G] [^G,^E]=E[^CDA][=DG] | [B,C^G][A,CF][DFG][C^EG] [A,CF]2 z2 | %65
 z [CF^A][DFB][CFA] [DFB][EA][FB][Ec] | [CFc]2 B2 [E^Ac][B,DB][CGB][CFA] | %67
 [DFB][DGd] [E^Ac][F-=A] ^G=G F[FB] | [CF^A][CFc] [FB]2 [EB]2 [EA][CE^A] | %69
 [DB][DGB]B^A [DFB][CFA][DF][^DFB] | [EB]2 [EA][CF^A] [B,EB][DFB][CGB][CFA] | %71
 [DFB][EGB][CFB]^A !fermata![^DFB]4 |][M:4/4] [Fc]2 [Dd]2 dc cB | A2 c4 [DFB]2 | [^E^GB]2 A2 G4 | %75
 [A,CF]2 AB [EA]4 | A ^G2 [EA] [DA]4 | [B,D^G]2 A4 [B,E=G-]2 | [CEG]2 [DF]2 [DB]2 [CEA-]2 | %79
 [^DFA]2 [EG]2 B2 A2- | [^DFA]2 [EG]2 [EF=c]2 [DFB]2 | [GB]4 [Ec]2 [DFB]2 | %82
 [C^G]2 [CFB]2 [CF^A]2 [B,FB]2 | [GB]4 [CE^A]2 [B,DB]2 | [GB]2 [F^A]2 [DFB]2 [DFB]2 | %85
 [CGc]2 [DFB]2 !fermata![CF^A]4 |][M:3/8] z3 | z3 | z3 | z3 | z3 | z3 | z3 | z3 | z [DA][DA] | %95
 [B,E][EB][Gc] | [F^Ac][Dd][FB] | [EGB]2 [CF^A] | [DFB]2 [DGd] | [EG][Fc][Ad] | [FAd][Gd][EBe] | %101
 [EGB][EGA][CFc] | [FG][EG][DF] | [D-GB] [EA]2 | [DFA]2 [FAd-] | dc [EA-c] | [EB]2 [E-GB] | %107
 [FB]2 [DFB-] | BA [FAc] | [^Gc]2 [^EGc] | [FAc]2 [D^Gd] | [^E^GB]2 [FA] | [DF^G] [CG]2 | %113
 [A,CF][CF][Fc] | [DFB]2 [B,EB] | [C^E^G][CFc][FAc] | [DFB] [C^G]2 | [A,CF][DFA][DFA] | %118
 [B,EG]2 [Ec] | [CF^A][FB][FBd] | [EGB]B^A | [DFB]2 [DFB] | [D-GB] [EA]2 | [DFA]2 [B,FB] | %124
 [B,CG][A,EA][Fc] | [DFA]2 [DGd] | [EGA][CEA][DA] | [DB][EG][DF] | [D-FB] [EA]2 | [DFA][DAd][DAd] | %130
 [DGB]2 [EGB] | [CEA][DA][FAd] | [DFB][DEB][CEA] | [DFA]2 [DFA] | [B,EG]2 [EG] | [^A,CF][FB][FBd] | %136
 [DGB][CGB][CF^A] | [DFB]2 [DGd] | cAB | B2 [CEA] | [^DF]2 [DFB] | BA=c | [^DAB]2 [EG]- | %143
 [EG] [B,F]2 | [G,B,E] [EB]2 | [=CEA]2 [CA] | [^DF][EB][EGB] | [EA][EF=c][^DFB] | [EGB]2 z | z3 | %150
 z3 | z3 | z [CFA][DA] | [B,E][EB][Ec] | [C^A][DA][DB] | [EGB][Ec][CE^A] | [DFB][DGd][DFB] | %157
 AG[DFA] | [EG]2 [DFB] | [CF^A][DA][FB] | [EGB][Ec][CEA] | [DFA]2 [B,DG] | [Gc]2 [CF^A] | %163
 [DFB]2 [FB] | [CGB]B^A | [DFB][B,FB][B,FB] | [EGB]2 [EAc] | [DFA]2 [B,DG] | [Ec]2 [CF^A] | %169
 [DFB]2 [FB] | [EGB]B^A | !fermata![DFB]3 |] %172
V:6
 B,4 B,4 A,4 | G,4 G,4 E,4 | F,4 F,,4 F,4 | B,4 B,,4 B,4 | E4 E,4 F,4 | G,4 G,,8 | !fermata!F,,12 | %7
 F,4 F,4 E,4 | D,4 D,4 B,,4 | C,4 C4 C,4 | F,4 F,,4 F,4 | B,4 B,,4 C,4 | D,12 | C,8 C,4- | %14
 C,4 B,,4 ^G,,2 ^E,2 | F,8 F,4- | F,4 =E,4 C,2 ^A,,2 | B,,8 B,4- | B,4 A,4 F,2 ^D,2 | E,8 E,4 | %20
 A,8 A,4 | B,8 =C4 | A,4 B,4 B,,4 | E,8 E,4 | ^A,,8 A,,4 | B,,8 B,4 | E,8 E,4 | F,6 B,,2 B,,2 E,2 | %28
 (E,2 F,2) (F,2 G,2) G,4 | E,4 F,4 F,,4 | B,,6 E,2 (E,2 C,2) | F,6 F,2 G,4 | E,4 F,4 F,,4 | %33
 B,8 A,4- | A,4 G,8 | F,12 |][M:4/4] z8 | z8 | z8 | z8 | z4 z F, B,,F, | B,C DC/B,/ ^A,=A, ^G,=G, | %42
 F,G, E,F, B,,C, D,2 | E,E, F,G, A,A,,B,,C, | D,D, A,A,, D,D,, A,A,, | E,E,, B,B,, F,F,, CC, | %46
 D,3 B,, C,D, B,,C, | F,^E, F,E, F,B,, F,B,, | C,C F,^G, ^E,F, B,,C, | F,^A, B,A, B,E, B,,E, | %50
 F,F,, B,,C, ^A,,B,, E,F, | B,B,, DD, A,A,, EE, | B,B,, =C,A,, B,,C, A,,B,, | %53
 E,^D, E,D, E,A,, E,A, | B,B,, E,F, ^D,E, A,,B,, | E,2 z2 z4 | z F,B,,F, B,C DC/B,/ | %57
 ^A,=A,^G,=G, F,G,E,F, | B,,C,D,D,, E,E,,F,G, | A,A,, B,C DD, A,A,, | D,D,, A,A,, E,E,, B,B,, | %61
 F,F,,CC, D,3 B,, | C,D,B,,C, F,^E,F,E, | F,B,,F,B,, C,CF,^G, | ^E,F,B,,C, F,2 z2 | %65
 z F,B,,F, B,C DC/B,/ | ^A,=A,^G,=G, F,G,E,F, | B,,B,, C,^D, E,E, B,B,, | F,^A,B,B,, E,E,C,F, | %69
 G,E,F,F,, B,,F,B,B,, | E,E,C,F, G,B,,E,F, | B,,E,F,F,, !fermata!B,,4 |][M:4/4] F,4 ^E,2 E,2 | %73
 F,2 ^A,2 B,2 B,,2 | C,2 D,2 B,,2 C,2 | F,2 F,^G, A,2 A,,2 | E,3 C, D,3 D, | E,2 F,2 D,2 E,2 | %78
 A,,A, B,2 G,2 A,2 | B,,2 E,2 A,3 A, | B,2 =C2 A,2 B,2 | E,4 ^A,,F,, B,,2 | E,2 B,,2 F,2 D,2 | %83
 E,4 F,2 G,2 | E,2 F,2 B,,2 B,,2 | E,,2 B,,2 !fermata!F,,4 |][M:3/8] z3 | z3 | z3 | z3 | z3 | z3 | %92
 z3 | z3 | z F,F, | G,/F,/G,E, | F,/E,/F,D, | E,C,F, | B,,2 B,, | C,A,,F,, | D,2 z | E,C,A,, | %102
 B,,C,D, | G,, A,,2 | D,2 D, | A,2 A, | !arpeggio!E,2 E, | B,2 B, | F,2 F, | C2 C, | D,2 B,, | %111
 C,2 D, | B,, C,2 | F,A,A, | B,2 ^G, | CA,F, | B,CC, | F,D,D, | E,2 C, | F,D,B,, | E,F,F,, | %121
 B,,2 B, | E,A,A,, | D,2 D, | E,C,A,, | B,,2 B,, | C,A,,F,, | G,,A,,B,, | G,, A,,2 | D,F,F, | %130
 G,2 E, | A,F,D, | B,G,A, | D,2 D, | E,2 C, | F,D,B,, | G,E,F, | B,,2 B,, | C,2 ^D, | %139
 !tenuto!E,G,,A,, | B,,2 B,, | C,C,A,, | B,,2 =C, | A,, B,,2 | E,G,G, | A,2 F, | B,G,E, | =CA,B, | %148
 E,2 z | z3 | z3 | z3 | z F,F, | G,/F,/G,E, | F,/E,/F,D, | E,C,F, | B,,2 B,, | C,2 D, | E,2 B,, | %159
 F,F,D, | E,2 A,, | D,2 G, | C,2 F, | B,,>C,D, | E,F,F,, | B,,D,D, | E,2 A,, | D,2 G, | C,2 F, | %169
 B,,>C,D, | E,F,F,, | !fermata!B,,3 |] %172
V:7
 x12 | B,8 x4 | [CF]8 x4 | [DF]8 A4 | x12 | F4 E8 | x12 | x12 | F8 x4 | F4 ^E8 | ^G4 F4 x4 | x12 | %12
 C4 B,8 | x12 | [^DF]8 ^E2 C2 | [CF]8 x4 | x8 E4 | F8 x4 | =E8 A4 | G8 x4 | E8 A4 | A8 x4 | %22
 x8 A2 G2 | x8 =d2 c2 | G4 F4 E4 | c4 B4 x4 | x12 | x12 | x12 | x4 F8 | x12 | x12 | x4 F8 | x12 | %34
 x12 | x12 |][M:4/4] x8 | x8 | x8 | x8 | x8 | x8 | x6 GF- | FE- ED x4 | ED- DC DD- DC | %45
 [B,E-]2 ED F2 F^E | x6 ^G2 | x8 | x8 | x8 | x8 | x2 GF DC AG | x8 | GF GF x4 | ^D=D [CG][=CF] x4 | %55
 x8 | x8 | x2 FE x4 | x2 GF- FE x2 | x4 D2- DC | x2 DC AG ED | [CF-]2 F^E C B,2 D | x2 F^E x4 | %63
 x8 | x8 | x8 | x2 FE x4 | x4 FE- ED | x2 D^D G^G x2 | x2 [CF]2 z4 | GG x6 | x8 |][M:4/4] A4 ^G4 | %73
 ^GF- FE D2 x2 | x2 F2- F2 [C^E]2 | x2 D2- D2 C2 | [B,E]3 x E2 D2 | z2 [A,C]2 [B,F]2 x2 | x8 | %79
 x4 [=CE]4 | x8 | F2 E2 F^A x2 | x8 | F2 E2 x4 | x8 | x8 |][M:3/8] x3 | x3 | x3 | x3 | x3 | x3 | %92
 x3 | x3 | x3 | x3 | x3 | x3 | x3 | x3 | x3 | x3 | x3 | x DC | x3 | [EA]2 x | AG x | E2 x | %108
 [CF]2 x | F^E x | x3 | x3 | x F^E | x3 | x3 | x3 | x F^E | x3 | x3 | x3 | x [CF]2 | x3 | x DC | %123
 x3 | x3 | x3 | x3 | x3 | x DC | x3 | x3 | x3 | x3 | x3 | x3 | x3 | x3 | x3 | G2 F- | FE x | x3 | %141
 E2 F | x3 | x E^D | x3 | x3 | x3 | x3 | x3 | x3 | x3 | x3 | x3 | x3 | x3 | x3 | x3 | E2 x | x3 | %159
 x3 | x3 | x3 | x3 | x3 | x [CF]2 | x3 | x3 | x3 | x3 | x3 | x [CF]2 | x3 |] %172
V:8
 x12 | x12 | x12 | x12 | x12 | x12 | x12 | x12 | x12 | x12 | x12 | x12 | x12 | x12 | x12 | x12 | %16
 x12 | x12 | x12 | x12 | x12 | x12 | x12 | x12 | x12 | x12 | x12 | x12 | x12 | x4 C8 | x12 | x12 | %32
 x4 C8 | x12 | x12 | x12 |][M:4/4] x8 | x8 | x8 | x8 | x8 | x8 | x8 | x8 | x8 | x8 | x8 | x8 | x8 | %49
 x8 | x8 | x8 | x8 | x8 | x8 | x8 | x8 | x8 | x8 | x8 | x8 | x8 | x8 | x8 | x8 | x8 | x8 | x8 | %68
 x8 | x8 | x8 | x8 |][M:4/4] x8 | x8 | x8 | x8 | x8 | x8 | x8 | x8 | x8 | x8 | x8 | x8 | x8 | x8 |] %86
[M:3/8] x3 | x3 | x3 | x3 | x3 | x3 | x3 | x3 | x3 | x3 | x3 | x3 | x3 | x3 | x3 | x3 | x3 | x3 | %104
 x3 | x3 | x3 | x3 | x3 | x3 | x3 | x3 | x3 | x3 | x3 | x3 | x3 | x3 | x3 | x3 | x3 | x3 | x3 | %123
 x3 | x3 | x3 | x3 | x3 | x3 | x3 | x3 | x3 | x3 | x3 | x3 | x3 | x3 | x3 | x3 | x3 | x3 | x3 | %142
 x3 | x3 | x3 | x3 | x3 | x3 | x3 | x3 | x3 | x3 | x3 | x3 | x3 | x3 | x3 | x3 | x3 | x3 | x3 | %161
 x3 | x3 | x3 | x3 | x3 | x3 | x3 | x3 | x3 | x3 | x3 |] %172
V:9
 x12 | x12 | x12 | x12 | x12 | x12 | x12 | x12 | x12 | x12 | x12 | x12 | x12 | x12 | x12 | x12 | %16
 x12 | x12 | x12 | x12 | x12 | x12 | x12 | x12 | x12 | x12 | x12 | x12 | x12 | x12 | x12 | x12 | %32
 x12 | x12 | x12 | x12 |][M:4/4] x8 | x8 | x8 | x8 | x8 | x8 | x8 | x8 | x8 | x8 | x8 | x8 | x8 | %49
 x8 | x8 | x8 | x8 | x8 | x8 | x8 | x8 | x8 | x8 | x8 | x8 | x8 | x8 | x8 | x8 | x8 | x8 | x8 | %68
 x8 | x8 | x8 | x8 |][M:4/4] x8 | x8 | x8 | x8 | x8 | x8 | x8 | x8 | x8 | x8 | x8 | x8 | x8 | x8 |] %86
[M:3/8] x3 | x3 | x3 | x3 | x3 | x3 | x3 | x3 | x3 | x3 | x3 | x3 | x3 | x3 | D,B,,G,, | x3 | x3 | %103
 x3 | x3 | x3 | x3 | x3 | x3 | x3 | x3 | x3 | x3 | x3 | x3 | x3 | x3 | x3 | x3 | x3 | x3 | x3 | %122
 x3 | x3 | x3 | x3 | x3 | x3 | x3 | x3 | x3 | x3 | x3 | x3 | x3 | x3 | x3 | x2 B, | x3 | x3 | x3 | %141
 x3 | x3 | x3 | x3 | x3 | x3 | x3 | x3 | x3 | x3 | x3 | x3 | x3 | x3 | x3 | x3 | x3 | x3 | x3 | %160
 x3 | x3 | x3 | x3 | x3 | x3 | x3 | x3 | x3 | x3 | x3 | x3 |] %172

